X:1
T:Title
%%score { ( 1 4 ) | ( 2 3 ) }
L:1/8
Q:1/4=112
M:4/4
K:G
V:1 treble nm="Grand Piano"
V:4 treble 
V:2 bass 
V:3 bass 
V:1
 [Ec]2 [EB]2 [^DA]2 [EG]2 | [=FB]2 [FB]2 [Fd]4 | [=Fd]2 [FB]2 [FA]2 [FB]2 | [^DA]4 [G,EG]4 | %4
w: Haldor~Lillenas * * *||||
 [Ec]2 [EB]2 [^DA]2 [EG]2 | [=FB]2 [FB]2 [Fd]4 | [Fd]2 [FA]2 [Fc]2 [A,F]2 | [FA]4 G4 | %8
w: ||||
 G2 G2 ^G2 [EG]2 | [EA]2 [Ee]2 d4 | c2 E2 B2 A2 |[M:6/4] z6 B6[K:bass] | %12
w: ||||
[M:4/4][K:treble] z4 .c2 .A2 | [=FB]2 [FB]2 d4 | B2 B2 BA .[B,=FG]2 | [EA]2 [EA]2 [Ec]4 | %16
w: ||||
 [EG]2 [EG]2 [E^G]2 [EG]2 | [EA]2 [Ee]2 d4 | c2 E2 B2 A2 |[M:5/4] z2 z4 B4[K:bass] | %20
w: ||||
[M:4/4][K:treble] z4 .c2 .A2 | [=FB]2 [FB]2 d4 | B2 B2 BA .[B,=FG]2 | [EA]2 [EA]2 [Ec]4 | %24
w: ||||
 [EG]2 [EG]2 [E^G]2 [EG]2 | [EA]2 [Ee]2 d4 | c2 E2 B2 A2 |[M:5/4] G3 d3 [Ec]4 |] %28
w: ||||
V:2
 [C,G,]2 [C,G,]2 [C,F,]2 [C,G,]2 | [D,G,]2 [D,G,]2 [B,,G,]4 | [B,,G,]2 [D,G,]2 [C,G,]2 [B,,G,]2 | %3
 F,4 z4 | [C,G,]2 [C,G,]2 [C,F,]2 [C,G,]2 | [D,G,]2 [D,G,]2 [B,,G,]4 | [D,A,]2 [D,D]2 [D,D]2 D,2 | %7
 D,4 [G,B,]4 | [G,CE]2 [G,CE]2 [E,B,E]2 [D,B,]2 | [C,C]2 [C,A,]2 [=F,A,=F]4 | %10
 [G,E]2 [G,C]2 [=F,A,^D]2 [F,CD]2 |[M:6/4][K:treble] [G,CE]3 [G,B,=F]3 [G,DF]6 | %12
[M:4/4][K:bass] [C,C]2 [C,G,]2 [C,F,]2 [C,G,]2 | [D,G,]2 [D,G,]2[K:treble] [G,B,=F]4 | %14
 [G,D=F]2 [G,DF]2 DC[K:bass] z F | [C,C]2 [C,C]2 [C,G,]4 | [C,C]2 [C,C]2 [E,B,]2 [D,B,]2 | %17
 [C,C]2 [C,A,]2 [=F,A,=F]4 | [G,E]2 [G,C]2 [F,A,^D]2 [F,CD]2 | %19
[M:5/4][K:treble] [G,CE]3 [G,B,=F]3 [G,DF]4 |[M:4/4][K:bass] [C,C]2 [C,G,]2 [C,F,]2 [C,G,]2 | %21
 [D,G,]2 [D,G,]2[K:treble] [G,B,=F]4 | [G,D=F]2 [G,DF]2 [G,F]-[G,CF][K:bass] z F | %23
 [C,C]2 [C,C]2 [C,G,]4 | [C,C]2 [C,C]2 [E,B,]2 [D,B,]2 | [C,C]2 [C,A,]2 [=F,A,=F]4 | %26
 [G,E]2 [G,C]2 [F,A,^D]2 [F,CD]2 |[M:5/4] [G,CE]3 [G,,B,=F]3 [C,C]4 |] %28
V:3
 x8 | x8 | x8 | C,8 | x8 | x8 | x8 | x8 | x8 | x8 | x8 |[M:6/4][K:treble] x12 |[M:4/4][K:bass] x8 | %13
 x4[K:treble] x4 | z4 [G,=F]2[K:bass] G,,2 | x8 | x8 | x8 | x8 |[M:5/4][K:treble] x10 | %20
[M:4/4][K:bass] x8 | x4[K:treble] x4 | z4 .D2[K:bass] G,,2 | x8 | x8 | x8 | x8 |[M:5/4] x10 |] %28
V:4
 x8 | x8 | x8 | x8 | x8 | x8 | x8 | D2 C2 z2 =F2 | x8 | x8 | x8 | %11
[M:6/4] G3 A3 z[K:bass] =F,E, D,3 |[M:4/4][K:treble] [Ec]2 [Ec]2 ^D-[DB]E-[EG] | x8 | x8 | x8 | %16
 x8 | x8 | x8 |[M:5/4] G3 A3 z[K:bass] =F,E,D, |[M:4/4][K:treble] [Ec]2 [Ec]2 ^D-[DB]E-[EG] | x8 | %22
 x8 | x8 | x8 | x8 | x8 |[M:5/4] x10 |] %28

